airbyte/airbyte-config/init/src/main/resources/icons/jira.svg

<svg xmlns="http://www.w3.org/2000/svg" xmlns:xlink="http://www.w3.org/1999/xlink" width="200" height="200" viewBox="132.903 266.806 2236.194 2236.194"><defs><path id="a" d="M1197.94 267.81c0 267.98 217.24 485.23 485.23 485.23h198.01v191.18c.18 267.74 217.17 484.75 484.92 484.93V361.05c0-51.48-41.74-93.24-93.25-93.24H1197.94Z"/><path id="b" d="M666.08 803.4c.17 267.74 217.17 484.75 484.92 484.92h198.01v191.8c.34 267.74 217.49 484.6 485.23 484.6V896.66c0-51.5-41.75-93.26-93.26-93.26H666.08Z"/><path id="d" d="M133.9 1338.68c0 267.98 217.26 485.23 485.23 485.23h198.64v191.17c.17 267.5 216.8 484.41 484.3 484.92V1431.94c0-51.51-41.75-93.26-93.26-93.26H133.9Z"/><linearGradient id="c" x1="1811.24" x2="1353.99" y1="805.26" y2="1276.82" gradientUnits="userSpaceOnUse"><stop offset="18%" style="stop-color:#0052cc;stop-opacity:1"/><stop offset="100%" style="stop-color:#2684ff;stop-opacity:1"/></linearGradient><linearGradient id="e" x1="1309.84" x2="781.09" y1="1343.96" y2="1858.1" gradientUnits="userSpaceOnUse"><stop offset="18%" style="stop-color:#0052cc;stop-opacity:1"/><stop offset="100%" style="stop-color:#2684ff;stop-opacity:1"/></linearGradient></defs><use xlink:href="#a" fill="#2684ff"/><use xlink:href="#a" fill-opacity="0" stroke="#000" stroke-opacity="0"/><use xlink:href="#b" fill="url(#c)"/><use xlink:href="#b" fill-opacity="0" stroke="#000" stroke-opacity="0"/><use xlink:href="#d" fill="url(#e)"/><use xlink:href="#d" fill-opacity="0" stroke="#000" stroke-opacity="0"/></svg>

<?xml version="1.0" encoding="UTF-8" standalone="no"?>
<!DOCTYPE svg PUBLIC "-//W3C//DTD SVG 1.1//EN" "http://www.w3.org/Graphics/SVG/1.1/DTD/svg11.dtd">
<svg version="1.1" xmlns="http://www.w3.org/2000/svg" xmlns:xlink="http://www.w3.org/1999/xlink" preserveAspectRatio="xMidYMid meet" viewBox="132.9032355398033 266.8064710796067 2236.193528920394 2236.193528920394" width="200" height="200"><defs><path d="M1197.94 267.81C1197.94 535.79 1415.18 753.04 1683.17 753.04C1696.37 753.04 1762.37 753.04 1881.18 753.04C1881.18 867.75 1881.18 931.48 1881.18 944.22C1881.36 1211.96 2098.35 1428.97 2366.1 1429.15C2366.1 1322.34 2366.1 467.86 2366.1 361.05C2366.1 309.57 2324.36 267.81 2272.85 267.81C2057.87 267.81 1305.43 267.81 1197.94 267.81Z" id="jXPbOi3Fq"></path><path d="M666.08 803.4C666.25 1071.14 883.25 1288.15 1151 1288.32C1164.2 1288.32 1230.2 1288.32 1349.01 1288.32C1349.01 1403.4 1349.01 1467.33 1349.01 1480.12C1349.35 1747.86 1566.5 1964.72 1834.24 1964.72C1834.24 1857.91 1834.24 1003.47 1834.24 896.66C1834.24 845.16 1792.49 803.4 1740.98 803.4C1740.98 803.4 773.57 803.4 666.08 803.4Z" id="c12us7iF8B"></path><linearGradient id="gradientc9lQdGXKT" gradientUnits="userSpaceOnUse" x1="1811.24" y1="805.26" x2="1353.99" y2="1276.82"><stop style="stop-color: #0052cc;stop-opacity: 1" offset="18%"></stop><stop style="stop-color: #2684ff;stop-opacity: 1" offset="100%"></stop></linearGradient><path d="M133.9 1338.68C133.9 1606.66 351.16 1823.91 619.13 1823.91C632.38 1823.91 698.59 1823.91 817.77 1823.91C817.77 1938.61 817.77 2002.34 817.77 2015.08C817.94 2282.58 1034.57 2499.49 1302.07 2500C1302.07 2393.19 1302.07 1538.74 1302.07 1431.94C1302.07 1380.43 1260.32 1338.68 1208.81 1338.68C993.83 1338.68 241.39 1338.68 133.9 1338.68Z" id="b5AFoRs6t"></path><linearGradient id="gradientdmOJBVim2" gradientUnits="userSpaceOnUse" x1="1309.84" y1="1343.96" x2="781.09" y2="1858.1"><stop style="stop-color: #0052cc;stop-opacity: 1" offset="18%"></stop><stop style="stop-color: #2684ff;stop-opacity: 1" offset="100%"></stop></linearGradient></defs><g><g><use xlink:href="#jXPbOi3Fq" opacity="1" fill="#2684ff" fill-opacity="1"></use><g><use xlink:href="#jXPbOi3Fq" opacity="1" fill-opacity="0" stroke="#000000" stroke-width="1" stroke-opacity="0"></use></g></g><g><use xlink:href="#c12us7iF8B" opacity="1" fill="url(#gradientc9lQdGXKT)"></use><g><use xlink:href="#c12us7iF8B" opacity="1" fill-opacity="0" stroke="#000000" stroke-width="1" stroke-opacity="0"></use></g></g><g><use xlink:href="#b5AFoRs6t" opacity="1" fill="url(#gradientdmOJBVim2)"></use><g><use xlink:href="#b5AFoRs6t" opacity="1" fill-opacity="0" stroke="#000000" stroke-width="1" stroke-opacity="0"></use></g></g></g></svg>
